X:444
T:Mason's Apron
M:2/2
L:1/8
K:A
|:g|"A"aA A/A/A ABAF|EFAB "D"d2 cB|"Bm"dB B/B/B BcBA|"E"Bcde gfed|
"A"cA A/A/A ABAF|EFAB "D"d2 cB|"Em"Bcde fefa|"A"A/A/A cB A3:|
|:e|"A"cAdA fAeA|"D"dAeA fedc|"Bm"dBfB gBfB|"E7"dBfB gfed|
"A"cAdA fAeA|"D"dAeA fedc|"E"Bcde fefa|"A"A/A/A cB A3:|
